X: 1
T: Waltz medley
P: Hewlett
C: O'Carolan
C: From Paul Milde 12/9/82, via John Chambers
C: arr. T. Traub 2-Jan-2012
M: 3/4
R: waltz
K: D
AF| "D"D2 DE FG| "A"AB c2 A2| "Bm"d2 f2 fg| "G"fe d3 B| \
    "D"A2 F2 F2| "G"G3 B AG| "D"AF "G"D2 "A"D2|1 "D"D4:|2 "D"D4 AB|]
|:\
"D"A2 F2 AB| A2 F2 AB| A2 d2 d2| "Bm"dc BA GF| \
"Em"G2 E2 GA| G2 E2 EF| "A"GF GB AG| "D"AF D3 E|
"D" FE F2 G2| "A"AB c2 A2| "Bm"fe fg ag| "G"fe d3 B|\
"D"A2 F2 F2| "G"G3 B AG| "D"AF "G"D2 "A"D2| "D"D6:|

